!! 00019] TT[TB
!! Zh. Ch. M-102 (M-33/110) (MZ 599)
!!!OTL: Wuge fang yang
!!!ARE: Asia, China, Shanxi, Hequ
!! Ethnic Group: Han
!! I, 315
!!!SCT: C0083
!!!YEM: Copyright 1995, estate of Helmut Schaffrath.
**kern
*ICvox
*Ivox
*M2/4
*k[f#c#g#]
*A:
{8cc#
8ee
8.aa
16ff#
=1
2ee
=2
16ff#
16aa
16ff#
16ee
16cc#
8ee
16f#
=3
8f#
4.a}
=4
{8.b
16cc#
8.cc#
16aa
=5
8ff#
8ee
8cc#
8f#
=6
8ee
8a
16cc#
16ee
16f#
16a
=7
8a
4.e}
=8
{8b
4b
16cc#
16ee
=9
8b
4b
16cc#
16ee
=10
8.f#
16a
8f#
8e
=11
2ee}
=12
{8.cc#
16aa
8ff#
16ee
16ff#
=13
8a
4f#
16cc#
16ee
=14
16b
16a
4b}
{16b
16cc#
=15
8ee
8a
16cc#
16ee
16f#
16a
=16
8a
4.e}
=17
{8b
4b
16cc#
16ee
=18
8b
4b
16cc#
16ee
=19
8.f#
16a
8f#
8e
=20
2ee}
=21
{8.cc#
16aa
8ff#
16ee
16ff#
=22
8a
4f#
16cc#
16ee
=23
16b
16a
4b}
{16b
16cc#
=24
8ee
8a
16cc#
16ee
16f#
16a
=25
8a
4.e}
=26
{8cc#
8ee
8.aa
16ff#
=27
2ee
=28
4.aa
8f#
=29
8f#
4.a}
=30
{8.b
16cc#
8.cc#
16aa
=31
8ff#
8ee
8cc#
8f#
=32
8ee
8a
8.cc#
16f#
=33
8a
4.e}
=34
{8b
4b
16cc#
16ee
=35
8b
4b
16cc#
16ee
=36
8.f#
16a
8f#
8e
=37
2ee}
=38
{8.cc#
16aa
8ff#
16ee
16ff#
=39
16cc#
16ee
4f#
16cc#
16ee
=40
16b
16a
4b}
{16b
16cc#
=41
8ee
8a
8.cc#
16f#
=42
8a
4.e}
=43
{8cc#
8ee
8.aa
16ff#
=44
8.ee
16ff#
8aa
8bb
=45
8ff#
8dd
8cc#
8f#
=46
4.a
8f#}
=47
{8.b
16cc#
8.cc#
16aa
=48
8ff#
8ee
8cc#
8f#
=49
8ee
8a
16cc#
16ee
16f#
16a
=50
8a
4.e}
=51
{8b
4b
16cc#
16ee
=52
8b
4b
16cc#
16ee
=53
8.f#
16a
8f#
8e
=54
2ee}
=55
{8.cc#
16aa
8ff#
16ee
16ff#
=56
8a
4f#
16cc#
16ee
=57
16b
16a
4b}
{16b
16cc#
=58
8ee
8a
16cc#
16ee
16f#
16a
=59
8a
4.e}
=60
{8cc#
8ee
8.aa
16ff#
=61
4.ee
8cc#
=62
8ff#
8dd
8cc#
16b
16cc#
=63
2a}
!!	ERROR: Second "MEL" statement encountered in input line 1178.
*k[f#c#g#]
*A:
{8.b
16cc#
8ee
8aa
=1
8ff#
8ee
8dd
8cc#
=2
8ee
8a
16cc#
16ee
8f#
=3
8a
16g#
16f#
4e}
=4
{8b
4b
16cc#
16ee
=5
8b
4b
16cc#
16ee
=6
8.f#
16a
8f#
8e
=7
2ee}
=8
{8.cc#
16aa
8ff#
16ee
16ff#
=9
8a
4f#
16cc#
16ee
=10
16b
16a
4b}
{16b
16cc#
=11
8ee
8a
8g#
16f#
16g#
=12
2e}
=13
{8cc#
8ee
8aa
8ff#
=14
8ee
8cc#
4aa
=15
8ff#
8ee
8cc#
8f#
=16
4.a
8f#}
=17
{8.b
16cc#
8.ee
16aa
=18
8ff#
8ee
8cc#
16ff#
16aa
=19
8ee
8a
8cc#
8f#
=20
8a
4.e}
=21
{8cc#
8f#
8r
16cc#
16ee
=22
8b
8b
8r
16cc#
16ee
=23
8.f#
16a
8f#
8e
=24
2ee}
=25
{8.cc#
16aa
8ff#
8ee
=26
8a
4f#
16cc#
16ee
=27
16b
16a
4b}
{16b
16cc#
=28
8ee
8a
16cc#
16ee
16f#
16a
=29
8a
4.e}
=30
{8b
4b
16cc#
16ee
=31
8b
4b
16cc#
16ee
=32
8.f#
16a
8f#
8e
=33
2ee}
=34
{8.cc#
16aa
8ff#
16ee
16ff#
=35
8a
4f#
16cc#
16ee
=36
8b
8e
16b
16e
16b
16cc#}
=37
{8ee
8a
16cc#
16ee
16f#
16a
=38
8a
4.e}
==
!!!AGN: Tanzlied, Er ren tai
!! urspruenglich Tanz- oder Gesangsduett aus der Mongolei,
!!    spaeter wird dies dann auch in einem kleinen volkstuemlichen Musiktheater
!!    uebernommen. - Enthaelt verschiedene Abschnitte. a) endet S. 316 Mitte; hat
!!    je eine Strophe von Januar bis Dezember; hier aber springt der Text von
!!    Januar in der zweiten Strophe gleich auf den Juni. Plattenhuelle kopiert-.
!!    Vor- und Zwischenspiele weggelassen. Wenig Verzierungen.
!!    Pinyin-Text der ersten Strophe vorhanden!
!!!ONB: ESAC (Essen Associative Code) Database: CHINA_004
!!!AMT: simple duple
!!!AIN: vox
!!!EED: Helmut Schaffrath
!!!EEV: 1.0
*-
